Obsidian-SemiLight/actions/22s/reverse.svg

<svg viewBox="0 0 22 22" xmlns="http://www.w3.org/2000/svg"><path d="m14.5 3-.21875.2148438-3.28125 3.2304687.71875.7089844 2.28125-2.2460938v8.1523439 3.939453h1v-3.939453-8.1523439l2.28125 2.2460938.71875-.7089844-3.28125-3.2304687zm-7.5 2v3.9394531 8.1523439l-2.28125-2.246094-.71875.708985 3.28125 3.230468.21875.214844.21875-.214844 3.28125-3.230468-.71875-.708985-2.28125 2.246094v-8.1523439-3.9394531z" fill="#4d4d4d"/></svg>

<svg xmlns="http://www.w3.org/2000/svg" viewBox="0 0 22 22">
  <defs id="defs3051">
    <style type="text/css" id="current-color-scheme">
      .ColorScheme-Text {
        color:#4d4d4d;
      }
      </style>
  </defs>
 <path 
    style="fill:currentColor;fill-opacity:1;stroke:none" 
    d="M 14.5 3 L 14.28125 3.2148438 L 11 6.4453125 L 11.71875 7.1542969 L 14 4.9082031 L 14 13.060547 L 14 17 L 15 17 L 15 13.060547 L 15 4.9082031 L 17.28125 7.1542969 L 18 6.4453125 L 14.71875 3.2148438 L 14.5 3 z M 7 5 L 7 8.9394531 L 7 17.091797 L 4.71875 14.845703 L 4 15.554688 L 7.28125 18.785156 L 7.5 19 L 7.71875 18.785156 L 11 15.554688 L 10.28125 14.845703 L 8 17.091797 L 8 8.9394531 L 8 5 L 7 5 z "
    class="ColorScheme-Text"
    />  
</svg>
